X:671
T: "Schlechte Wirthschaft"
N: Z1352
O: Europa, Mitteleuropa, Deutschland, Niederrhein
R: Zech -, Schalks - Lied
M: 4/4
L: 1/8
K: G
D2 | G2FFG2AA | _B3cd2z
d | d3d_e3d | c3_BA3
=F | _B3cd3d | d2G2_e3
d | c2_B2A2G2 | A3_BG2

